X:15002
T:O'Keefe's slide
T:Dan O'Keefe's slide
R:Slide
C:Trad.
O:Ireland
M:6/8
L:1/8
Q:1/8=240
K:EDor
D|"Em"E2B B2A|"D"FEF A2D|"Em"E2B B2A|"D"F2D DEF|
"Em"E2B B2A|"D"FEF A3|FEF A2B|"Em"F2E E2:|
|:A|"Em"B2e e2f|e2d B2A|B2e e2f|e2d B2c|
"D"d2e dcB|AFE D2E|FEF A2B|"Em"F2E E2:|

